X: 10
T: JIGS: Humours of Killarney Set
T: Humours of Killarney / Sheehan's / Cheer up Old Hag
C: C: Trad.; S: ThZCh + Paudie O'Connor & John O'Brien / Various / Méabh & Clíodhna Ní Bheaglaoich
C: Set Leaders: Oliushka, Anton
Z: Anton Zille ed.; Nigel Gatherer / JACKB / Bregolas at The Session
N: https://thesession.org/members/26966/sets/71901
R: Jig
M: 6/8
L: 1/8
Q: 3/8=116
K: Gmaj
|:BGG G2 B|ded d2c|BAB GBd|e2f g2D|
GBd gfe|fdB cBA|BGE EDE|c3 B2A:||
|:BGE EDE|GED D2A|BGE EDE|c2d edc|
BGE EDE|GED DEF|G/A/BA GBA|G3 G2A:||
T: Connaughtman's Rambles
K: Dmaj
|:FAA dAA|BAB dAG|FAA dfe|dBB BAG|
FAA dAA|~B3 def|gfe f2e|1 dBB BAG:|2 dBB B2e||
|:fbb faf|fed ede|fbb faf|fed e2e|
fbb faf|fed def|gfe ~f2e|1 dBB Bde:|2 dBB BAG||
T: Donncha Lynch's / Donncha Ó Loinsigh's
K: Amaj
|:EAA cAA|BAB cAF|EAA cAA|B/c/dc BAF|
EAA cAA|BAB cAA|Bcd e2d|cAA A2F:||
|:E3 ECE|FAA FAA|Bcd e2d|cAA BAF|
~E3 ECE|FAA FAA|Bcd e2d|cAA A2F:||

